X:1
T:Title
%%score { 1 | ( 2 3 ) }
L:1/8
Q:1/4=100
M:6/8
K:Eb
V:1 treble nm="Grand Piano"
V:2 bass 
V:3 bass 
V:1
 G2 G F2 E | [GB]2 [GB] G3 | E3 [DF][CE][DF] | G6 | G2 G F2 E | [GB]2 [GB] [B,EG]3 | %6
w: C.~E.~Leslie * * *||||||
 [G,E]3 [A,DF][G,E][A,DF] | [G,E]6 | [A,CEA]2 [A,CEA] .[A,CEA]2 [A,CEF] | [B,EG]2 [B,EG] [B,EG]3 | %10
w: ||||
 [A,CEA]2 [A,CEA] .[A,CEA]2 [A,=B,EF] | G2 G G3 | G2 G F2 E | [GB]2 [GB] [B,EG]3 | %14
w: ||||
 [G,E]3 [A,DF][G,E][A,DF] |[M:7/4] [G,E]6 z2 z2 z4 |] %16
w: ||
V:2
 [E,B,E]2 [E,B,E] [E,A,E]2 [E,G,] | [E,E]2 [E,E] [E,B,E]3 | [B,,G,]3 [B,,B,][B,,B,][B,,B,] | %3
 [E,B,E]6 | [E,B,E]2 [E,B,E] [E,A,E]2 [E,G,] | [E,E]2 [E,E] E,3 | B,,3 B,,B,,B,, | E,6 | %8
 A,,2 A,, z EA,, | E,2 E, E,3 | A,,2 A,, z EA,, | [E,B,E]2 [E,B,E] [E,B,E]3 | %12
 [E,B,E]2 [E,B,E] [E,A,E]2 [E,G,] | [E,E]2 [E,E] E,3 | B,,3 B,,B,,B,, |[M:7/4] E,6 z2 z2 z4 |] %16
V:3
 x6 | x6 | x6 | x6 | x6 | x6 | x6 | x6 | z3 .A,,3 | x6 | z3 .A,,3 | x6 | x6 | x6 | x6 | %15
[M:7/4] x14 |] %16

